src/assets/svg/google_icon.svg

<svg width="38" height="38" viewBox="0 0 38 38" fill="none" xmlns="http://www.w3.org/2000/svg">
<path d="M34.5254 15.899H33.25V15.8333H19V22.1667H27.9482C26.6427 25.8535 23.1349 28.5 19 28.5C13.7536 28.5 9.49999 24.2464 9.49999 19C9.49999 13.7536 13.7536 9.5 19 9.5C21.4217 9.5 23.6249 10.4136 25.3025 11.9059L29.7809 7.42742C26.9531 4.79196 23.1705 3.16667 19 3.16667C10.256 3.16667 3.16666 10.256 3.16666 19C3.16666 27.744 10.256 34.8333 19 34.8333C27.7439 34.8333 34.8333 27.744 34.8333 19C34.8333 17.9384 34.7241 16.9021 34.5254 15.899Z" fill="#FFB400"/>
<path d="M4.99225 11.6304L10.1943 15.4454C11.6019 11.9605 15.0108 9.5 19 9.5C21.4217 9.5 23.6249 10.4136 25.3025 11.9059L29.7809 7.42742C26.9531 4.79196 23.1705 3.16667 19 3.16667C12.9184 3.16667 7.64433 6.60013 4.99225 11.6304Z" fill="#FF3D00"/>
<path d="M19 34.8333C23.0898 34.8333 26.8058 33.2682 29.6155 30.723L24.7151 26.5763C23.072 27.8258 21.0643 28.5016 19 28.5C14.8818 28.5 11.385 25.874 10.0676 22.2094L4.90439 26.1875C7.52481 31.3152 12.8464 34.8333 19 34.8333Z" fill="#4CAF50"/>
<path d="M34.5254 15.899H33.25V15.8333H19V22.1667H27.9482C27.3237 23.9213 26.1989 25.4546 24.7127 26.577L24.715 26.5755L29.6155 30.7222C29.2687 31.0373 34.8333 26.9167 34.8333 19C34.8333 17.9384 34.7241 16.9021 34.5254 15.899Z" fill="#1976D2"/>
</svg>

<?xml version="1.0" encoding="UTF-8"?>
<svg viewBox="0 0 38 38" xmlns="http://www.w3.org/2000/svg">
<path d="m34.525 15.899h-1.2754v-0.0657h-14.25v6.3334h8.9482c-1.3055 3.6868-4.8133 6.3333-8.9482 6.3333-5.2464 0-9.5-4.2536-9.5-9.5s4.2536-9.5 9.5-9.5c2.4217 0 4.6249 0.9136 6.3025 2.4059l4.4784-4.4785c-2.8278-2.6355-6.6104-4.2608-10.781-4.2608-8.744 0-15.833 7.0893-15.833 15.833s7.0893 15.833 15.833 15.833c8.7439 0 15.833-7.0893 15.833-15.833 0-1.0616-0.1092-2.0979-0.3079-3.101z" fill="#FFB400"/>
<path d="m4.9922 11.63 5.202 3.815c1.4076-3.4849 4.8165-5.9454 8.8057-5.9454 2.4217 0 4.6249 0.9136 6.3025 2.4059l4.4784-4.4785c-2.8278-2.6355-6.6104-4.2608-10.781-4.2608-6.0816 0-11.356 3.4335-14.008 8.4637z" fill="#FF3D00"/>
<path d="m19 34.833c4.0898 0 7.8058-1.5651 10.616-4.1103l-4.9004-4.1467c-1.6431 1.2495-3.6508 1.9253-5.7151 1.9237-4.1182 0-7.615-2.626-8.9324-6.2906l-5.1632 3.9781c2.6204 5.1277 7.942 8.6458 14.096 8.6458z" fill="#4CAF50"/>
<path d="m34.525 15.899h-1.2754v-0.0657h-14.25v6.3334h8.9482c-0.6245 1.7546-1.7493 3.2879-3.2355 4.4103l0.0023-0.0015 4.9005 4.1467c-0.3468 0.3151 5.2178-3.8055 5.2178-11.722 0-1.0616-0.1092-2.0979-0.3079-3.101z" fill="#1976D2"/>
</svg>
